X: 150
T: Trip to the Camp
%R: reel
B: Chas & Sam Thompson "Twenty Four Country Dances for the Year 1779", London 1779, p.75 #1
F: http://www.vwml.org/browse/browse-collections-dance-tune-books/browse-thompsons1779
Z: 2014 John Chambers <jc:trillian.mit.edu> (added dance description)
M: C|
L: 1/8
K: A
% - - - - - - - - - - - - - - - - - - - - - - - - - - - - -
|:\
AEcA eca2 | gfed cBAG |\
AEcA eca2 | gbB^d e2E2 :|
|:\
egbg aedc | dcBA AGFE |\
AEcE ecaf | ecBc A2A,2 :|
% - - - - - - - - - - Dance description - - - - - - - - - -
%%begintext align
%% Cast off two Cu. & up again .|. lead down
%% the middle & up again :|. hands 3 with
%% the 2d Lady the same with the 2d Gent: .|:
%% Right and Left at top :|:
%%endtext

%%sep 1 1 500
%%sep 1 1 500
